Origami/64x64/apps/navit.svg

<svg width="64" height="64" version="1" xmlns="http://www.w3.org/2000/svg">
 <path d="m10 54.2v2c0 1.55 1.2496 2.8 2.8008 2.8h38.4c1.55 0 2.8-1.25 2.8-2.8v-2c0 1.55-1.25 2.8-2.8 2.8h-38.4c-1.5504 0-2.8-1.25-2.8-2.8z" style="opacity:.2"/>
 <path d="m54 55.2v-48.4c0-1.5512-1.248-2.8-2.8-2.8h-38.4c-1.5512 0-2.8 1.2488-2.8 2.8v48.4c0 1.552 1.2488 2.8 2.8 2.8h38.4c1.5512 0 2.8-1.2488 2.8-2.8z" style="fill:#4f4f4f"/>
 <g transform="translate(-.95704 -.84766)" style="opacity:.2">
  <path d="m29.95704 9.84766v10h6v-10zm0 18v10h6v-10zm0 18v10h6v-10z"/>
 </g>
 <g transform="translate(-.95704 -1.84766)">
  <path d="m29.95704 9.84766v10h6v-10zm0 18v10h6v-10zm0 18v10h6v-10z" style="fill:#ffffff"/>
 </g>
 <path d="m12.800781 4c-1.5512 0-2.800781 1.2495812-2.800781 2.8007812v1c0-1.5511999 1.249581-2.8007812 2.800781-2.8007812h38.400391c1.55 0 2.798828 1.2495813 2.798828 2.8007812v-1c0-1.5512-1.248828-2.8007812-2.798828-2.8007812h-38.400391z" style="fill:#ffffff;opacity:.1"/>
 <path d="M 63.958,45.848 A 16,16 0 0 1 48,61 16,16 0 0 1 32.042,46.152 16,16 0 0 0 32,47 16,16 0 0 0 48,63 16,16 0 0 0 64,47 16,16 0 0 0 63.95704,45.84766 Z" style="fill-rule:evenodd;opacity:.2"/>
 <circle cx="48" cy="46" r="16" style="fill-rule:evenodd;fill:#3f8ce6"/>
 <path d="m46 32v4.203125a10 10 0 0 0 -7.789062 7.796875h-4.210938v4h4.203125a10 10 0 0 0 7.796875 7.789062v4.210938h4v-4.203125a10 10 0 0 0 7.789062 -7.796875h4.210938v-4h-4.203125a10 10 0 0 0 -7.796875 -7.789062v-4.210938h-4zm2 9a5 5 0 0 1 5 5 5 5 0 0 1 -5 5 5 5 0 0 1 -5 -5 5 5 0 0 1 5 -5z" style="fill:#ffffff"/>
</svg>

<svg xmlns="http://www.w3.org/2000/svg" width="64" height="64" version="1">
 <path style="opacity:0.2" d="m 10,54.2 0,2 c 0,1.55 1.2496,2.8 2.8008,2.8 l 38.4,0 c 1.55,0 2.8,-1.25 2.8,-2.8 l 0,-2 c 0,1.55 -1.25,2.8 -2.8,2.8 l -38.4,0 c -1.5504,0 -2.8,-1.25 -2.8,-2.8 z"/>
 <path style="fill:#4f4f4f" d="M 54,55.2 54,6.8 C 54,5.2488 52.752,4 51.2,4 L 12.8,4 C 11.2488,4 10,5.2488 10,6.8 l 0,48.4 c 0,1.552 1.2488,2.8 2.8,2.8 l 38.4,0 c 1.5512,0 2.8,-1.2488 2.8,-2.8 z"/>
 <g style="opacity:0.2" transform="translate(-0.95704,-0.84766)">
  <path d="m 29.95704,9.84766 v 10 h 6 v -10 z m 0,18 v 10 h 6 v -10 z m 0,18 v 10 h 6 v -10 z"/>
 </g>
 <g transform="translate(-0.95704,-1.84766)">
  <path style="fill:#ffffff" d="m 29.95704,9.84766 v 10 h 6 v -10 z m 0,18 v 10 h 6 v -10 z m 0,18 v 10 h 6 v -10 z"/>
 </g>
 <path style="opacity:0.1;fill:#ffffff" d="M 12.800781 4 C 11.249581 4 10 5.2495812 10 6.8007812 L 10 7.8007812 C 10 6.2495813 11.249581 5 12.800781 5 L 51.201172 5 C 52.751172 5 54 6.2495813 54 7.8007812 L 54 6.8007812 C 54 5.2495812 52.751172 4 51.201172 4 L 12.800781 4 z"/>
 <path style="opacity:0.2;fill-rule:evenodd" d="M 63.958,45.848 A 16,16 0 0 1 48,61 16,16 0 0 1 32.042,46.152 16,16 0 0 0 32,47 16,16 0 0 0 48,63 16,16 0 0 0 64,47 16,16 0 0 0 63.95704,45.84766 Z"/>
 <circle style="fill:#3f8ce6;fill-rule:evenodd" cx="48" cy="46" r="16"/>
 <path style="fill:#ffffff" d="M 46 32 L 46 36.203125 A 10 10 0 0 0 38.210938 44 L 34 44 L 34 48 L 38.203125 48 A 10 10 0 0 0 46 55.789062 L 46 60 L 50 60 L 50 55.796875 A 10 10 0 0 0 57.789062 48 L 62 48 L 62 44 L 57.796875 44 A 10 10 0 0 0 50 36.210938 L 50 32 L 46 32 z M 48 41 A 5 5 0 0 1 53 46 A 5 5 0 0 1 48 51 A 5 5 0 0 1 43 46 A 5 5 0 0 1 48 41 z"/>
</svg>
